public/assets/logo.svg

<svg width="36" height="38" viewBox="0 0 36 38" fill="none" xmlns="http://www.w3.org/2000/svg">
<g clip-path="url(#clip0_47_3)">
<path d="M25.3075 12.8261L25.2758 12.8361L12.3596 14.198C12.2802 14.1538 12.1702 14.0937 12.0359 14.0228C11.7481 13.8709 11.3461 13.668 10.8897 13.4647C10.0014 13.0692 8.8193 12.631 7.87 12.631C3.7989 12.631 0.5 15.9298 0.5 20C0.5 20.2489 0.512355 20.4945 0.536015 20.7369C0.925208 30.057 8.58359 37.5 18 37.5C27.6651 37.5 35.5 29.6651 35.5 20C35.5 19.9467 35.4954 19.9001 35.4924 19.8718C35.4909 19.8566 35.4898 19.8466 35.489 19.8392C35.4898 19.8264 35.4908 19.8126 35.4919 19.7961C35.4926 19.7875 35.4932 19.7782 35.4939 19.7679C35.4967 19.7281 35.5 19.6757 35.5 19.619C35.5 15.5489 32.2011 12.25 28.131 12.25C27.5723 12.25 26.8299 12.41 26.2641 12.5546C25.9733 12.6289 25.7144 12.703 25.5283 12.7586C25.4351 12.7864 25.3598 12.8097 25.3075 12.8261Z" fill="#FFCB4C" stroke="#AB6400"/>
<path d="M31.125 4.22497C30.9454 4.22497 30.775 4.24499 30.6146 4.27635C29.8451 3.46103 28.7612 2.93797 27.541 2.93797C27.5197 2.93797 27.499 2.93863 27.4792 2.93971C26.668 2.12387 25.5498 1.60497 24.299 1.60497C22.8902 1.60497 21.6478 2.25732 20.8267 3.26463C20.3233 2.68308 19.5802 2.31397 18.749 2.31397C18.1497 2.31397 17.6015 2.50833 17.1549 2.83167C16.4323 1.53302 15.0563 0.646973 13.458 0.646973C12.0736 0.646973 10.8512 1.31228 10.0771 2.33188C9.97361 2.32021 9.86355 2.31197 9.74999 2.31197C8.25022 2.31197 6.95066 3.09609 6.19752 4.26055C6.07949 4.24819 5.95796 4.24097 5.83299 4.24097C3.69285 4.24097 1.95799 5.97583 1.95799 8.11597C1.95799 10.2561 3.69285 11.991 5.83299 11.991C6.40097 11.991 6.934 11.8625 7.41285 11.6432C7.81489 11.8797 8.28395 12.022 8.79199 12.022C8.85238 12.022 8.91171 12.0198 8.97003 12.0156C9.93519 13.3812 11.5159 14.282 13.323 14.282C14.9834 14.282 16.4613 13.5246 17.4425 12.3432C18.2247 13.0682 19.2662 13.522 20.425 13.522C22.3377 13.522 23.9484 12.3046 24.5662 10.6129C24.71 10.6042 24.8516 10.5886 24.991 10.5668C25.6976 11.1043 26.576 11.438 27.543 11.438C28.762 11.438 29.8468 10.9151 30.6158 10.0996C30.7762 10.131 30.9464 10.151 31.126 10.151C32.7621 10.151 34.089 8.82412 34.089 7.18797C34.089 5.55157 32.7609 4.22497 31.125 4.22497Z" fill="#CCD6DD" stroke="#A4AAAF"/>
<path d="M6.14749 9.61699L5.438 8.90564V10.115V10.117V10.617H5.73079C7.13612 12.0591 8.14534 13.5763 8.86191 14.879C9.41579 15.8859 9.79616 16.7645 10.0195 17.3533L10.1376 17.6646L10.4703 17.6757C11.1661 17.699 11.5988 17.5106 11.9915 17.3396C12.0147 17.3295 12.0378 17.3195 12.0607 17.3095C12.4399 17.1456 12.8502 16.9805 13.6302 16.9598C14.0645 16.9483 14.4129 17.0905 14.776 17.3157C14.9347 17.4141 15.0867 17.5221 15.2534 17.6406C15.2839 17.6623 15.315 17.6843 15.3466 17.7068C15.5444 17.8468 15.7625 17.9976 15.9998 18.1275L16 18.1276C16.9605 18.6533 17.7926 18.3954 18.4467 18.0836C18.5996 18.0106 18.7487 17.932 18.8861 17.8596L18.9061 17.849C19.0525 17.7718 19.1852 17.7023 19.3148 17.642C19.5777 17.5197 19.7807 17.459 19.959 17.459C20.0691 17.459 20.2381 17.5016 20.4919 17.6042C20.6434 17.6655 20.7854 17.7303 20.94 17.8009C21.053 17.8525 21.1728 17.9072 21.3079 17.9658C21.5999 18.0925 21.9299 18.2207 22.264 18.2822C22.6017 18.3444 22.9806 18.3454 23.345 18.1767L23.3453 18.1766C24.0132 17.867 24.4382 17.5741 24.7614 17.3514C24.7946 17.3285 24.8268 17.3063 24.858 17.285C25.1852 17.0612 25.3722 16.9542 25.6629 16.9144L25.9492 16.8752L26.0581 16.6075C26.3735 15.8327 26.7838 14.9466 27.2833 14.0542L27.2835 14.0539C28.0084 12.7568 28.914 11.4685 30.0191 10.4916L31.0086 9.61699H29.688H6.14749Z" fill="#F36C24" stroke="#A4AAAF"/>
<path d="M35 19.619C35 15.825 31.925 12.75 28.131 12.75C27.152 12.75 25.379 13.328 25.379 13.328L12.253 14.712C12.253 14.712 9.536 13.131 7.87 13.131C4.075 13.131 1 16.206 1 20C1 20.237 1.012 20.471 1.035 20.702C1.406 29.763 8.849 37 18 37C27.389 37 35 29.389 35 20C35 19.948 34.991 19.899 34.988 19.847C34.991 19.771 35 19.696 35 19.619Z" fill="#FFCB4C"/>
<path d="M30.126 14.751C29.185 14.507 29.117 15.137 27.924 14.997C26.756 14.86 28.353 14.258 27.729 13.905C27.519 13.786 27.218 13.761 26.847 13.807C25.795 13.936 9.893 14.351 9.3 14.637C8.773 14.891 8.461 15.185 7.982 14.738C7.379 14.176 6.516 14.5 6.266 14.687C5.944 14.929 5.877 15.409 6.5 15.964C7.121 16.384 8.173 16.823 9.965 17.123C10.162 17.156 10.33 17.169 10.487 17.175C11.714 17.216 11.884 15.505 13.617 15.459C14.753 15.429 24.77 16.529 25.595 16.417C25.696 16.403 25.802 16.393 25.924 16.393C27.487 16.393 27.85 17.843 29.513 16.709C30.218 16.136 31.324 15.061 30.126 14.751Z" fill="#F19020"/>
<path d="M5.938 10.115C7.461 11.642 8.542 13.26 9.3 14.638C9.866 15.667 10.256 16.567 10.487 17.176C11.714 17.217 11.884 16.506 13.617 16.46C14.753 16.43 15.4 17.229 16.24 17.689C17.742 18.511 18.809 16.959 19.959 16.959C20.809 16.959 22.178 18.166 23.135 17.723C24.522 17.08 24.77 16.532 25.595 16.419C25.917 15.628 26.336 14.723 26.847 13.81C27.587 12.486 28.525 11.145 29.688 10.117H5.938V10.115Z" fill="#F36C24"/>
<path d="M29.306 10.435C30.587 9.17197 6.267 10.451 6.965 11.223C7.953 12.317 9.165 14.376 9.165 14.376C9.165 14.376 13.922 16.781 17.516 13.75C20.016 15.25 23.516 14.719 25.078 12.141C25.078 12.141 26.295 12.594 27.529 12.672C27.529 12.672 28.482 11.247 29.306 10.435Z" fill="#CE5C1F"/>
<path d="M18 34.588C20.3925 34.588 22.332 32.3718 22.332 29.638C22.332 26.9042 20.3925 24.688 18 24.688C15.6075 24.688 13.668 26.9042 13.668 29.638C13.668 32.3718 15.6075 34.588 18 34.588Z" fill="#65471B"/>
<path d="M14 21.606C14 23.079 13.104 24.273 12 24.273C10.895 24.273 10 23.079 10 21.606C10 20.133 10.895 18.939 12 18.939C13.104 18.939 14 20.133 14 21.606ZM26 21.605C26 23.078 25.105 24.272 24 24.272C22.895 24.272 22 23.078 22 21.605C22 20.133 22.896 18.938 24 18.938C25.105 18.939 26 20.133 26 21.605Z" fill="#65471B"/>
<path d="M31.125 4.72497C30.885 4.72497 30.658 4.76997 30.439 4.83397C29.751 3.98897 28.716 3.43797 27.541 3.43797C27.454 3.43797 27.372 3.45797 27.286 3.46397C26.552 2.63697 25.492 2.10497 24.299 2.10497C22.794 2.10497 21.499 2.94397 20.813 4.17097C20.467 3.37297 19.674 2.81397 18.749 2.81397C18.031 2.81397 17.4 3.15597 16.988 3.67897C16.48 2.20897 15.1 1.14697 13.458 1.14697C12.135 1.14697 10.978 1.83597 10.31 2.86997C10.126 2.84097 9.94199 2.81197 9.74999 2.81197C8.31799 2.81197 7.08899 3.62397 6.45699 4.80397C6.25399 4.76597 6.04699 4.74097 5.83299 4.74097C3.96899 4.74097 2.45799 6.25197 2.45799 8.11597C2.45799 9.97997 3.96899 11.491 5.83299 11.491C6.42099 11.491 6.96799 11.332 7.44699 11.066C7.82299 11.348 8.28499 11.522 8.79199 11.522C8.93699 11.522 9.07699 11.506 9.21399 11.479C10.069 12.858 11.581 13.782 13.323 13.782C15.032 13.782 16.529 12.897 17.396 11.565C18.116 12.447 19.198 13.022 20.425 13.022C22.24 13.022 23.752 11.784 24.201 10.111C24.235 10.112 24.266 10.121 24.3 10.121C24.583 10.121 24.859 10.09 25.126 10.034C25.78 10.59 26.617 10.938 27.543 10.938C28.717 10.938 29.753 10.387 30.44 9.54197C30.659 9.60597 30.886 9.65097 31.126 9.65097C32.486 9.65097 33.589 8.54797 33.589 7.18797C33.589 5.82797 32.485 4.72497 31.125 4.72497Z" fill="#CCD6DD"/>
<path d="M31.125 4.72497C30.885 4.72497 30.658 4.76997 30.439 4.83397C29.751 3.98897 28.716 3.43797 27.541 3.43797C27.454 3.43797 27.372 3.45797 27.286 3.46397C26.552 2.63697 25.492 2.10497 24.299 2.10497C22.794 2.10497 21.499 2.94397 20.813 4.17097C20.467 3.37297 19.674 2.81397 18.749 2.81397C18.031 2.81397 17.4 3.15597 16.988 3.67897C16.48 2.20897 15.1 1.14697 13.458 1.14697C12.135 1.14697 10.978 1.83597 10.31 2.86997C10.126 2.84097 9.94199 2.81197 9.74999 2.81197C8.31799 2.81197 7.08899 3.62397 6.45699 4.80397C6.25399 4.76597 6.04699 4.74097 5.83299 4.74097C3.96899 4.74097 2.45799 6.25197 2.45799 8.11597C2.45799 9.97997 3.96899 11.491 5.83299 11.491C6.42099 11.491 6.96799 11.332 7.44699 11.066C7.82299 11.348 8.28499 11.522 8.79199 11.522C8.93699 11.522 9.07699 11.506 9.21399 11.479C10.069 12.858 11.581 13.782 13.323 13.782C15.032 13.782 16.529 12.897 17.396 11.565C18.116 12.447 19.198 13.022 20.425 13.022C22.24 13.022 23.752 11.784 24.201 10.111C24.235 10.112 24.266 10.121 24.3 10.121C24.583 10.121 24.859 10.09 25.126 10.034C25.78 10.59 26.617 10.938 27.543 10.938C28.717 10.938 29.753 10.387 30.44 9.54197C30.659 9.60597 30.886 9.65097 31.126 9.65097C32.486 9.65097 33.589 8.54797 33.589 7.18797C33.589 5.82797 32.485 4.72497 31.125 4.72497Z" fill="#CCD6DD"/>
<path d="M27.795 8.888C28.9664 8.888 29.916 7.93839 29.916 6.767C29.916 5.5956 28.9664 4.646 27.795 4.646C26.6236 4.646 25.674 5.5956 25.674 6.767C25.674 7.93839 26.6236 8.888 27.795 8.888Z" fill="#E1E8ED"/>
<path d="M19.876 6.90303C19.876 5.71003 18.909 4.74204 17.716 4.74204C17.348 4.74204 17.006 4.84304 16.703 5.00504C16.452 4.40404 15.859 3.98103 15.166 3.98103C14.599 3.98103 14.099 4.26603 13.798 4.69903C13.128 4.07603 12.237 3.68604 11.25 3.68604C9.49501 3.68604 8.03401 4.89604 7.62501 6.52404C7.26001 6.15704 6.75501 5.92903 6.19601 5.92903C5.08501 5.92903 4.18401 6.83004 4.18401 7.94104C4.18401 9.05204 5.08501 9.95304 6.19601 9.95304C6.89901 9.95304 7.51501 9.59203 7.87501 9.04603C8.39201 10.127 9.404 10.919 10.624 11.125C11.014 11.795 11.731 12.25 12.562 12.25C13.636 12.25 14.531 11.496 14.755 10.49C15.079 10.67 15.446 10.782 15.842 10.782C16.912 10.782 17.804 10.033 18.032 9.03203C19.074 8.87703 19.876 7.98803 19.876 6.90303Z" fill="#E1E8ED"/>
</g>
<defs>
<clipPath id="clip0_47_3">
<rect width="36" height="38" fill="white"/>
</clipPath>
</defs>
</svg>

<svg xmlns="http://www.w3.org/2000/svg" width="36" height="38" fill="none"><g clip-path="url(#a)"><path fill="#FFCB4C" stroke="#AB6400" d="m25.308 12.826-.032.01-12.916 1.362q-.122-.067-.324-.175a19 19 0 0 0-1.146-.558c-.889-.396-2.07-.834-3.02-.834a7.37 7.37 0 0 0-7.334 8.106C.926 30.057 8.584 37.5 18 37.5c9.665 0 17.5-7.835 17.5-17.5 0-.053-.005-.1-.008-.128l-.003-.033.003-.043.002-.028q.005-.062.006-.149a7.37 7.37 0 0 0-7.369-7.369c-.559 0-1.301.16-1.867.305a19 19 0 0 0-.956.271Z"/><path fill="#CCD6DD" stroke="#A4AAAF" d="M31.125 4.225c-.18 0-.35.02-.51.051a4.21 4.21 0 0 0-3.136-1.336 4.47 4.47 0 0 0-3.18-1.335 4.46 4.46 0 0 0-3.472 1.66 2.74 2.74 0 0 0-2.078-.951c-.6 0-1.147.194-1.594.518A4.22 4.22 0 0 0 13.458.647a4.24 4.24 0 0 0-3.38 1.685 3 3 0 0 0-.328-.02c-1.5 0-2.8.784-3.552 1.949a3.875 3.875 0 1 0-.365 7.73 3.8 3.8 0 0 0 1.58-.348 2.7 2.7 0 0 0 1.557.373 5.32 5.32 0 0 0 4.353 2.266 5.34 5.34 0 0 0 4.12-1.939 4.37 4.37 0 0 0 2.982 1.179 4.41 4.41 0 0 0 4.141-2.91q.216-.012.425-.045a4.2 4.2 0 0 0 2.552.871 4.2 4.2 0 0 0 3.073-1.338c.16.031.33.051.51.051a2.963 2.963 0 1 0-.001-5.926Z"/><path fill="#F36C24" stroke="#A4AAAF" d="m6.147 9.617-.709-.711v1.711h.293a19.7 19.7 0 0 1 3.13 4.262 20 20 0 0 1 1.159 2.474l.118.312.332.01c.696.024 1.129-.164 1.521-.335l.07-.03c.379-.164.79-.33 1.57-.35.434-.012.782.13 1.145.356.159.098.31.206.477.325l.094.066c.197.14.415.29.653.42.96.526 1.793.268 2.447-.043.153-.073.302-.152.44-.224l.02-.011c.145-.077.278-.147.408-.207.263-.122.466-.183.644-.183.11 0 .28.043.533.145.151.062.293.126.448.197.113.052.233.106.368.165.292.127.622.255.956.316.338.062.717.063 1.081-.105.668-.31 1.093-.603 1.416-.826l.097-.066c.327-.224.514-.33.805-.37l.286-.04.11-.267c.314-.775.725-1.661 1.224-2.554.725-1.297 1.631-2.585 2.736-3.562l.99-.875H6.148Z"/><path fill="#FFCB4C" d="M35 19.619a6.87 6.87 0 0 0-6.869-6.869c-.979 0-2.752.578-2.752.578l-13.126 1.384s-2.717-1.581-4.383-1.581a6.87 6.87 0 0 0-6.835 7.571C1.406 29.763 8.849 37 18 37c9.389 0 17-7.611 17-17 0-.052-.009-.101-.012-.153.003-.076.012-.151.012-.228"/><path fill="#F19020" d="M30.126 14.751c-.941-.244-1.009.386-2.202.246-1.168-.137.429-.739-.195-1.092-.21-.119-.511-.144-.882-.098-1.052.129-16.954.544-17.547.83-.527.254-.839.548-1.318.101-.603-.562-1.466-.238-1.716-.051-.322.242-.389.722.234 1.277.621.42 1.673.859 3.465 1.159.197.033.365.046.522.052 1.227.041 1.397-1.67 3.13-1.716 1.136-.03 11.153 1.07 11.978.958a2 2 0 0 1 .329-.024c1.563 0 1.926 1.45 3.589.316.705-.573 1.811-1.648.613-1.958"/><path fill="#F36C24" d="M5.938 10.115c1.523 1.527 2.604 3.145 3.362 4.523a20.5 20.5 0 0 1 1.187 2.538c1.227.041 1.397-.67 3.13-.716 1.136-.03 1.783.769 2.623 1.229 1.502.822 2.569-.73 3.719-.73.85 0 2.219 1.207 3.176.764 1.387-.643 1.635-1.191 2.46-1.304.322-.791.741-1.696 1.252-2.609.74-1.324 1.678-2.665 2.841-3.693H5.938z"/><path fill="#CE5C1F" d="M29.306 10.435c1.281-1.263-23.039.016-22.341.788.988 1.094 2.2 3.153 2.2 3.153s4.757 2.405 8.351-.626c2.5 1.5 6 .969 7.562-1.609 0 0 1.217.453 2.451.531 0 0 .953-1.425 1.777-2.237"/><path fill="#65471B" d="M18 34.588c2.392 0 4.332-2.216 4.332-4.95s-1.94-4.95-4.332-4.95-4.332 2.216-4.332 4.95 1.94 4.95 4.332 4.95M14 21.606c0 1.473-.896 2.667-2 2.667s-2-1.194-2-2.667.895-2.667 2-2.667 2 1.194 2 2.667m12-.001c0 1.473-.895 2.667-2 2.667s-2-1.194-2-2.667.896-2.667 2-2.667c1.105.001 2 1.195 2 2.667"/><path fill="#CCD6DD" d="M31.125 4.725c-.24 0-.467.045-.686.109a3.73 3.73 0 0 0-2.898-1.396c-.087 0-.169.02-.255.026a3.98 3.98 0 0 0-2.987-1.359c-1.505 0-2.8.839-3.486 2.066a2.236 2.236 0 0 0-3.825-.492 3.74 3.74 0 0 0-3.53-2.532c-1.323 0-2.48.689-3.148 1.723a3.6 3.6 0 0 0-.56-.058c-1.432 0-2.661.812-3.293 1.992a3.4 3.4 0 0 0-.624-.063 3.375 3.375 0 1 0 0 6.75 3.3 3.3 0 0 0 1.614-.425c.376.282.838.456 1.345.456q.217-.001.422-.043a4.83 4.83 0 0 0 4.109 2.303 4.85 4.85 0 0 0 4.073-2.217 3.9 3.9 0 0 0 3.029 1.457 3.914 3.914 0 0 0 3.776-2.911c.034.001.065.01.099.01q.425-.002.826-.087a3.72 3.72 0 0 0 2.417.904c1.174 0 2.21-.551 2.897-1.396.219.064.446.109.686.109a2.463 2.463 0 1 0-.001-4.926"/><path fill="#CCD6DD" d="M31.125 4.725c-.24 0-.467.045-.686.109a3.73 3.73 0 0 0-2.898-1.396c-.087 0-.169.02-.255.026a3.98 3.98 0 0 0-2.987-1.359c-1.505 0-2.8.839-3.486 2.066a2.236 2.236 0 0 0-3.825-.492 3.74 3.74 0 0 0-3.53-2.532c-1.323 0-2.48.689-3.148 1.723a3.6 3.6 0 0 0-.56-.058c-1.432 0-2.661.812-3.293 1.992a3.4 3.4 0 0 0-.624-.063 3.375 3.375 0 1 0 0 6.75 3.3 3.3 0 0 0 1.614-.425c.376.282.838.456 1.345.456q.217-.001.422-.043a4.83 4.83 0 0 0 4.109 2.303 4.85 4.85 0 0 0 4.073-2.217 3.9 3.9 0 0 0 3.029 1.457 3.914 3.914 0 0 0 3.776-2.911c.034.001.065.01.099.01q.425-.002.826-.087a3.72 3.72 0 0 0 2.417.904c1.174 0 2.21-.551 2.897-1.396.219.064.446.109.686.109a2.463 2.463 0 1 0-.001-4.926"/><path fill="#E1E8ED" d="M27.795 8.888a2.121 2.121 0 1 0 0-4.242 2.121 2.121 0 0 0 0 4.242M19.876 6.903a2.16 2.16 0 0 0-2.16-2.161c-.368 0-.71.101-1.013.263a1.665 1.665 0 0 0-2.905-.306 3.73 3.73 0 0 0-2.548-1.013 3.74 3.74 0 0 0-3.625 2.838 2.012 2.012 0 1 0-1.429 3.429c.703 0 1.319-.361 1.679-.907a3.74 3.74 0 0 0 2.749 2.079 2.24 2.24 0 0 0 4.131-.635c.324.18.691.292 1.087.292 1.07 0 1.962-.749 2.19-1.75a2.155 2.155 0 0 0 1.844-2.129"/></g><defs><clipPath id="a"><path fill="#fff" d="M0 0h36v38H0z"/></clipPath></defs></svg>
